packages/ckeditor5-bookmark/theme/icons/bookmark.svg

<svg width="20" height="20" viewBox="0 0 20 20" fill="none" xmlns="http://www.w3.org/2000/svg">
<path fill-rule="evenodd" clip-rule="evenodd" d="M5.68 3.41705C5.54745 3.41705 5.44 3.52278 5.44 3.65322V16.3135L9.23296 13.2111C9.67756 12.8475 10.3224 12.8475 10.767 13.2111L14.56 16.3135V3.65322C14.56 3.52278 14.4525 3.41705 14.32 3.41705H5.68ZM4 3.65322C4 2.74017 4.75216 2 5.68 2H14.32C15.2478 2 16 2.74017 16 3.65322V16.8169C16 17.8174 14.8148 18.3645 14.033 17.725L10 14.4264L5.96704 17.725C5.18517 18.3645 4 17.8174 4 16.8169V3.65322Z" fill="#333333"/>
</svg>

<svg viewBox="0 0 20 20" xmlns="http://www.w3.org/2000/svg"><path clip-rule="evenodd" d="M5.68 3.417a.238.238 0 0 0-.24.236v12.66l3.793-3.102a1.215 1.215 0 0 1 1.534 0l3.793 3.103V3.654a.238.238 0 0 0-.24-.237H5.68ZM4 3.653C4 2.74 4.752 2 5.68 2h8.64c.928 0 1.68.74 1.68 1.653v13.164c0 1-1.185 1.547-1.967.908L10 14.426l-4.033 3.299c-.782.64-1.967.092-1.967-.908V3.653Z"/></svg>
